apps/trade/public/tokens/op.svg

<svg width="24" height="24" viewBox="0 0 24 24" fill="none" xmlns="http://www.w3.org/2000/svg">
    <g clip-path="url(#op_clip0_10065_64214)">
        <path
            d="M12 24C18.6274 24 24 18.6274 24 12C24 5.37258 18.6274 0 12 0C5.37258 0 0 5.37258 0 12C0 18.6274 5.37258 24 12 24Z"
            fill="#FF0420" />
        <path
            d="M8.50001 15.1872C7.78481 15.1872 7.19921 15.0192 6.74321 14.6832C6.29201 14.3424 6.06641 13.8528 6.06641 13.224C6.06641 13.0896 6.08081 12.9312 6.10961 12.7392C6.18641 12.3072 6.29681 11.7888 6.44081 11.1792C6.84881 9.52799 7.90481 8.70239 9.60401 8.70239C10.0648 8.70239 10.4824 8.77919 10.8472 8.93759C11.212 9.08639 11.5 9.31679 11.7112 9.62399C11.9224 9.92639 12.028 10.2864 12.028 10.704C12.028 10.8288 12.0136 10.9872 11.9848 11.1792C11.8936 11.712 11.788 12.2352 11.6584 12.7392C11.4472 13.56 11.0872 14.1792 10.5688 14.5872C10.0552 14.9904 9.36401 15.1872 8.50001 15.1872ZM8.62961 13.8912C8.96561 13.8912 9.24881 13.7904 9.48401 13.5936C9.72401 13.3968 9.89681 13.0944 9.99761 12.6816C10.1368 12.1152 10.2424 11.6256 10.3144 11.2032C10.3384 11.0784 10.3528 10.9488 10.3528 10.8144C10.3528 10.2672 10.0696 9.99359 9.49841 9.99359C9.16241 9.99359 8.87441 10.0944 8.63441 10.2912C8.39921 10.488 8.23121 10.7904 8.13041 11.2032C8.02001 11.6064 7.91441 12.096 7.80401 12.6816C7.78001 12.8016 7.76561 12.9264 7.76561 13.0608C7.76081 13.6176 8.05361 13.8912 8.62961 13.8912Z"
            fill="white" />
        <path
            d="M12.4458 15.1008C12.3786 15.1008 12.3306 15.0816 12.2922 15.0384C12.2634 14.9904 12.2538 14.9376 12.2634 14.8752L13.5066 9.01918C13.5162 8.95198 13.5498 8.89918 13.6074 8.85598C13.6602 8.81278 13.7178 8.79358 13.7802 8.79358H16.1754C16.8426 8.79358 17.3754 8.93278 17.7786 9.20638C18.1866 9.48478 18.393 9.88318 18.393 10.4064C18.393 10.5552 18.3738 10.7136 18.3402 10.8768C18.1914 11.568 17.889 12.0768 17.4282 12.408C16.977 12.7392 16.3578 12.9024 15.5706 12.9024H14.3562L13.9434 14.8752C13.929 14.9424 13.9002 14.9952 13.8426 15.0384C13.7898 15.0816 13.7322 15.1008 13.6698 15.1008H12.4458ZM15.633 11.6592C15.8874 11.6592 16.1034 11.592 16.2906 11.4528C16.4826 11.3136 16.6074 11.1168 16.6698 10.8576C16.689 10.7568 16.6986 10.6656 16.6986 10.5888C16.6986 10.416 16.6458 10.2816 16.545 10.1904C16.4442 10.0944 16.2666 10.0464 16.0218 10.0464H14.9418L14.601 11.6592H15.633Z"
            fill="white" />
    </g>
    <defs>
        <clipPath id="op_clip0_10065_64214">
            <rect width="24" height="24" fill="white" />
        </clipPath>
    </defs>
</svg>

<svg width="24" height="24" fill="none" xmlns="http://www.w3.org/2000/svg">
    <g clip-path="url(#a)">
        <path d="M12 24c6.627 0 12-5.373 12-12S18.627 0 12 0 0 5.373 0 12s5.373 12 12 12Z" fill="#FF0420"/>
        <path d="M8.5 15.187c-.715 0-1.3-.168-1.757-.504-.451-.34-.677-.83-.677-1.459 0-.134.015-.293.044-.485.076-.432.187-.95.33-1.56.409-1.651 1.465-2.477 3.164-2.477.46 0 .878.077 1.243.236.365.148.653.379.864.686.211.302.317.662.317 1.08 0 .125-.014.283-.043.475a19.478 19.478 0 0 1-.327 1.56c-.21.821-.57 1.44-1.09 1.848-.513.403-1.204.6-2.068.6Zm.13-1.296c.336 0 .619-.1.854-.297.24-.197.413-.5.514-.912.139-.567.244-1.056.316-1.479.024-.125.039-.254.039-.389 0-.547-.283-.82-.855-.82-.336 0-.624.1-.864.297-.235.197-.403.5-.504.912-.11.403-.216.893-.326 1.479-.024.12-.038.244-.038.379-.005.557.288.83.864.83ZM12.446 15.1c-.067 0-.115-.018-.154-.062-.029-.048-.038-.1-.029-.163l1.244-5.856a.24.24 0 0 1 .1-.163.264.264 0 0 1 .173-.062h2.395c.668 0 1.2.139 1.604.412.408.279.614.677.614 1.2 0 .15-.02.308-.053.47-.149.692-.451 1.2-.912 1.532-.451.331-1.07.494-1.857.494h-1.215l-.413 1.973a.258.258 0 0 1-.1.163.264.264 0 0 1-.173.063h-1.224Zm3.187-3.44c.254 0 .47-.068.658-.207a.987.987 0 0 0 .379-.595c.019-.101.029-.192.029-.27 0-.172-.053-.306-.154-.398-.1-.096-.278-.144-.523-.144h-1.08L14.6 11.66h1.032Z" fill="#fff"/>
    </g>
    <defs>
        <clipPath id="a">
            <path fill="#fff" d="M0 0h24v24H0z"/>
        </clipPath>
    </defs>
</svg>
